X:1
T:The Message of His Coming
T:Robert Emmett Winsett, 1914
T:The Message of His Coming
T:Public Domain
T:Public Domain
T:Public Domain
C:Robert Emmett Winsett, 1914
Z:Public Domain
%%score 1 ( 2 3 )
L:1/8
M:4/4
K:C
V:1 treble 
V:2 bass 
V:3 bass 
V:1
 [EG] | [EG][EG][^D^F][EG] [=FA]2 [EG]2 | [Ec][Ec][FB][Gc] [Fd]2 [FA]2 | %3
w: 1.~We’re|look- ing for His com- ing,|in the clouds of heav- en,|
w: 2.~We’re|long- ing for the glo- ry|that a- waits the faith- ful,|
w: 3.~We’re|pray- ing for the ad- vent|of our bless- èd Sav- ior,|
w: 4.~We|see the signs ap- pear- ing|of His bless- èd com- ing,|
 [FB][FB][DB][Ec] [Fd]2 [Ge]2 | [Ec][^DB][Ec][FA] [EG]3 [EG] | [EG][EG][^D^F][EG] [FA]2 [EG][EG] | %6
w: Com- ing back to earth to|catch a- way His own; Then|may we all be read- y, when|
w: Who shall o- ver- come, and|ev- ’ry con- flict win; Press|ev- er brave- ly on- ward, the|
w: Who has prom- ised life to|all who trust His grace; His|com- ing now is pend- ing, the|
w: Lo, be- hold the fig leaves|now be- com- ing green; The|Gos- pel of His king- dom has|
 [Ec][Ec][FB][Gc] [Fd]2 [FA][FA] | [FB][FB][DB][Ec] [Fd]2 [Ge][Fd] | [Ec]6 z2 || %9
w: mid- night cry is giv- en, To|go and reign with Christ on His|throne.|
w: prize is life e- tern- al To|all who win the fight o- ver|sin.|
w: mes- sage be- ing giv- en, And|soon we’ll see our Lord face to|face.|
w: gone to ev- ’ry na- tion; That|we are near the end can be|seen.|
"^Refrain" [Ge][Ge][Ge][Ge] (3[Ge][Fd][Ec] [Ec][FA] | [EG][EG] (3[EG][EG][FA] [EG]2 [Ec]2 | %11
w: ||
w: Glad- ly may we her- ald the mes- sage|of His bless- èd ap- pear- ing,|
w: ||
w: ||
 [DB][DB] (3[DB][DB][Ec] [Fd]2 [Ge]2 | [Ec][^DB][Ec][FA] [EG]3 z | %13
w: ||
w: Soon He’s com- ing in glo- ry,|tell to one and all;|
w: ||
w: ||
 [Ge][Ge][Ge][Ge] (3[Ge][Fd][Ec] [Ec][FA] | (3:2:4[EG][EG][EG]/[EG]/ [EG][FA] [EG]2 [Ec]2 | %15
w: ||
w: Then a- wake, ye saints of the Lord, why|slum- ber when the end is near- ing,|
w: ||
w: ||
 [DB][^C^A][DB][E^c] [Fd][Ec][Ge][Fd] | [Ec]6 |] %17
w: ||
w: But get rea- dy for the fin- al|call.|
w: ||
w: ||
V:2
 [C,C] | [C,C][C,C][C,C][C,C] [C,C]2 [C,C]2 | [C,G,][C,G,][D,G,][E,G,] [F,A,]2 [F,C]2 | %3
 G,G,G,G, [G,B,]2 [G,B,]2 | [C,C][C,C][C,C][C,C] [C,C]3 [C,C] | %5
 [C,C][C,C][C,C][C,C] [C,C]2 [C,C][C,C] | [C,G,][C,G,][D,G,][E,G,] [F,A,]2 [F,C][F,C] | %7
 G,G,[G,D][G,C] [G,B,]2 [G,B,][G,B,] | [C,C]6 z2 || %9
 [C,C][C,C][C,C][C,C] (3[C,C][C,G,][C,G,] [C,G,][C,C] | %10
 [C,C][C,C] (3[C,C][C,C][C,C] [C,C]2 [C,G,]2 | G,G, (3G,G,G, [G,B,]2 [G,B,]2 | %12
 [C,C][C,C][C,C][C,C] [C,C]3 z | [C,C][C,C][C,C][C,C] (3[C,C][C,G,][C,G,] [C,G,][C,C] | %14
 (3:2:4[C,C][C,C][C,C]/[C,C]/ [C,C][C,C] [C,C]2 [C,G,]2 | G,G,[G,D][G,C] [G,B,]A,[G,B,][G,B,] | %16
 [C,C]6 |] %17
V:3
 x | x8 | x8 | G,G,G,G, x4 | x8 | x8 | x8 | G,G, x6 | x8 || x8 | x8 | G,G,G,G, G, x3 | x8 | x8 | %14
 x8 | G,G, x2 A, x3 | x6 |] %17

